app/assets/images/icons/active/cards-accepted.svg

<?xml version="1.0" encoding="UTF-8" standalone="no"?>
<svg width="32px" height="232px" viewBox="0 0 32 232" version="1.1" xmlns="http://www.w3.org/2000/svg" xmlns:xlink="http://www.w3.org/1999/xlink" xmlns:sketch="http://www.bohemiancoding.com/sketch/ns">
    <title>cards-accepted</title>
    <description>Created with Sketch (http://www.bohemiancoding.com/sketch)</description>
    <defs></defs>
    <g id="Hotel-facilities" stroke="none" stroke-width="1" fill="none" fill-rule="evenodd" sketch:type="MSPage">
        <path d="M21.7293625,125.093681 L2.84838897,136.021681 C2.51516597,136.212681 2.40143118,136.639681 2.59298452,136.972681 L9.32129552,148.649681 C9.51185118,148.985681 9.93686015,149.098681 10.2700831,148.905681 L29.1520544,137.978681 C29.4852774,137.785681 29.5980145,137.360681 29.4074588,137.025681 L22.6791478,125.348681 C22.4875945,125.015681 22.0625855,124.900681 21.7293625,125.093681 C21.7293625,125.093681 22.0625855,124.900681 21.7293625,125.093681 Z M21.8211485,126.651681 L23.2727636,129.167681 L5.59498449,139.395681 L4.14736004,136.880681 L21.8211485,126.651681 Z M10.1782972,147.347681 L7.4526528,142.616681 L25.1284366,132.388681 L27.854081,137.118681 L10.1782972,147.347681 Z M13.0665623,143.528681 L18.2883862,140.506681 L18.7523044,141.313681 L13.5284852,144.334681 L13.0665623,143.528681 Z M10.053588,145.273681 L12.2634351,143.994681 L12.725358,144.799681 L10.5155109,146.077681 L10.053588,145.273681 Z M10.053588,145.273681" id="cards-accepted--white" fill="#206FAC" sketch:type="MSShapeGroup"></path>
        <path d="M21.7293625,85.0936813 L2.84838897,96.0216813 C2.51516597,96.2126813 2.40143118,96.6396813 2.59298452,96.9726813 L9.32129552,108.649681 C9.51185118,108.985681 9.93686015,109.098681 10.2700831,108.905681 L29.1520544,97.9786813 C29.4852774,97.7856813 29.5980145,97.3606813 29.4074588,97.0256813 L22.6791478,85.3486813 C22.4875945,85.0156813 22.0625855,84.9006813 21.7293625,85.0936813 C21.7293625,85.0936813 22.0625855,84.9006813 21.7293625,85.0936813 Z M21.8211485,86.6516813 L23.2727636,89.1676813 L5.59498449,99.3956813 L4.14736004,96.8806813 L21.8211485,86.6516813 Z M10.1782972,107.347681 L7.4526528,102.616681 L25.1284366,92.3886813 L27.854081,97.1186813 L10.1782972,107.347681 Z M13.0665623,103.528681 L18.2883862,100.506681 L18.7523044,101.313681 L13.5284852,104.334681 L13.0665623,103.528681 Z M10.053588,105.273681 L12.2634351,103.994681 L12.725358,104.799681 L10.5155109,106.077681 L10.053588,105.273681 Z M10.053588,105.273681" id="cards-accepted--white" fill="#FFFFFF" sketch:type="MSShapeGroup"></path>
        <path d="M21.7293625,45.0936813 L2.84838897,56.0216813 C2.51516597,56.2126813 2.40143118,56.6396813 2.59298452,56.9726813 L9.32129552,68.6496813 C9.51185118,68.9856813 9.93686015,69.0986813 10.2700831,68.9056813 L29.1520544,57.9786813 C29.4852774,57.7856813 29.5980145,57.3606813 29.4074588,57.0256813 L22.6791478,45.3486813 C22.4875945,45.0156813 22.0625855,44.9006813 21.7293625,45.0936813 C21.7293625,45.0936813 22.0625855,44.9006813 21.7293625,45.0936813 Z M21.8211485,46.6516813 L23.2727636,49.1676813 L5.59498449,59.3956813 L4.14736004,56.8806813 L21.8211485,46.6516813 Z M10.1782972,67.3476813 L7.4526528,62.6166813 L25.1284366,52.3886813 L27.854081,57.1186813 L10.1782972,67.3476813 Z M13.0665623,63.5286813 L18.2883862,60.5066813 L18.7523044,61.3136813 L13.5284852,64.3346813 L13.0665623,63.5286813 Z M10.053588,65.2736813 L12.2634351,63.9946813 L12.725358,64.7996813 L10.5155109,66.0776813 L10.053588,65.2736813 Z M10.053588,65.2736813" id="cards-accepted--light-grey" fill="#67737B" sketch:type="MSShapeGroup"></path>
        <path d="M21.7293625,5.09368135 L2.84838897,16.0216813 C2.51516597,16.2126813 2.40143118,16.6396813 2.59298452,16.9726813 L9.32129552,28.6496813 C9.51185118,28.9856813 9.93686015,29.0986813 10.2700831,28.9056813 L29.1520544,17.9786813 C29.4852774,17.7856813 29.5980145,17.3606813 29.4074588,17.0256813 L22.6791478,5.34868135 C22.4875945,5.01568135 22.0625855,4.90068135 21.7293625,5.09368135 C21.7293625,5.09368135 22.0625855,4.90068135 21.7293625,5.09368135 Z M21.8211485,6.65168135 L23.2727636,9.16768135 L5.59498449,19.3956813 L4.14736004,16.8806813 L21.8211485,6.65168135 Z M10.1782972,27.3476813 L7.4526528,22.6166813 L25.1284366,12.3886813 L27.854081,17.1186813 L10.1782972,27.3476813 Z M13.0665623,23.5286813 L18.2883862,20.5066813 L18.7523044,21.3136813 L13.5284852,24.3346813 L13.0665623,23.5286813 Z M10.053588,25.2736813 L12.2634351,23.9946813 L12.725358,24.7996813 L10.5155109,26.0776813 L10.053588,25.2736813 Z M10.053588,25.2736813" id="cards-accepted--dark-grey" fill="#3A434E" sketch:type="MSShapeGroup"></path>
    </g>
</svg>

<svg width="32" height="232" viewBox="0 0 32 232" xmlns="http://www.w3.org/2000/svg" xmlns:sketch="http://www.bohemiancoding.com/sketch/ns"><title>cards-accepted</title><g sketch:type="MSPage" fill="none"><path d="M21.729 125.094l-18.881 10.928c-.333.191-.447.618-.255.951l6.728 11.677c.191.336.616.449.949.256l18.882-10.927c.333-.193.446-.618.255-.953l-6.728-11.677c-.192-.333-.617-.448-.95-.255zm.092 1.558l1.452 2.516-17.678 10.228-1.448-2.515 17.674-10.229zm-11.643 20.696l-2.726-4.731 17.676-10.228 2.726 4.73-17.676 10.229zm2.888-3.819l5.222-3.022.464.807-5.224 3.021-.462-.806zm-3.013 1.745l2.21-1.279.462.805-2.21 1.278-.462-.804zm0 0" id="cards-accepted--white" fill="#206FAC" sketch:type="MSShapeGroup"/><path d="M21.729 85.094l-18.881 10.928c-.333.191-.447.618-.255.951l6.728 11.677c.191.336.616.449.949.256l18.882-10.927c.333-.193.446-.618.255-.953l-6.728-11.677c-.192-.333-.617-.448-.95-.255zm.092 1.558l1.452 2.516-17.678 10.228-1.448-2.515 17.674-10.229zm-11.643 20.696l-2.726-4.731 17.676-10.228 2.726 4.73-17.676 10.229zm2.888-3.819l5.222-3.022.464.807-5.224 3.021-.462-.806zm-3.013 1.745l2.21-1.279.462.805-2.21 1.278-.462-.804zm0 0" fill="#fff" sketch:type="MSShapeGroup"/><path d="M21.729 45.094l-18.881 10.928c-.333.191-.447.618-.255.951l6.728 11.677c.191.336.616.449.949.256l18.882-10.927c.333-.193.446-.618.255-.953l-6.728-11.677c-.192-.333-.617-.448-.95-.255zm.092 1.558l1.452 2.516-17.678 10.228-1.448-2.515 17.674-10.229zm-11.643 20.696l-2.726-4.731 17.676-10.228 2.726 4.73-17.676 10.229zm2.888-3.819l5.222-3.022.464.807-5.224 3.021-.462-.806zm-3.013 1.745l2.21-1.279.462.805-2.21 1.278-.462-.804zm0 0" fill="#67737B" sketch:type="MSShapeGroup"/><path d="M21.729 5.094l-18.881 10.928c-.333.191-.447.618-.255.951l6.728 11.677c.191.336.616.449.949.256l18.882-10.927c.333-.193.446-.618.255-.953l-6.728-11.677c-.192-.333-.617-.448-.95-.255zm.092 1.558l1.452 2.516-17.678 10.228-1.448-2.515 17.674-10.229zm-11.643 20.696l-2.726-4.731 17.676-10.228 2.726 4.73-17.676 10.229zm2.888-3.819l5.222-3.022.464.807-5.224 3.021-.462-.806zm-3.013 1.745l2.21-1.279.462.805-2.21 1.278-.462-.804zm0 0" fill="#3A434E" sketch:type="MSShapeGroup"/></g></svg>
